img/weathericons/snowshowersandthunder_night.svg

<svg viewBox="0 0 100 100" xmlns="http://www.w3.org/2000/svg" xmlns:xlink="http://www.w3.org/1999/xlink"><mask id="a"><path d="m0 0h100v100h-100z" fill="#fff"/><use height="100" stroke="#000" stroke-linejoin="round" stroke-width="10" transform="translate(3 18)" width="100" xlink:href="#f"/></mask><linearGradient id="b" x1="0%" x2="100%" y1="50%" y2="0%"><stop offset="0" stop-color="#686e73"/><stop offset="1" stop-color="#6a7075"/></linearGradient><mask id="c"><path d="m0 0h100v100h-100z" fill="#fff"/><use height="100" stroke="#000" stroke-linejoin="round" stroke-width="8" transform="translate(37 51)" width="100" xlink:href="#e"/></mask><symbol id="d"><path d="m11.68 4.47h-2.83l1.42-2.47a1.35 1.35 0 1 0 -2.34-1.33l-1.42 2.45-1.41-2.45a1.35 1.35 0 0 0 -1.84-.49 1.35 1.35 0 0 0 -.5 1.82l1.42 2.47h-2.83a1.35 1.35 0 1 0 0 2.7h2.83l-1.42 2.45a1.35 1.35 0 0 0 .49 1.84 1.39 1.39 0 0 0 1.85-.46l1.41-2.48 1.42 2.48a1.35 1.35 0 1 0 2.34-1.35l-1.42-2.48h2.83a1.35 1.35 0 1 0 0-2.7z" fill="#47c0e3"/></symbol><symbol id="e"><path d="m19.6 23.42-6.86-3.03 2.81-15.39-10.55 19.49 7.08 3.02-4.59 17.49z" fill="#ffdd15"/></symbol><symbol id="f"><path d="m55.7 5a23.94 23.94 0 0 0 -21.33 13.05 9.9 9.9 0 0 0 -12.78 5.56 15 15 0 0 0 -1.71-.1 14.81 14.81 0 0 0 -10.68 4.49 14.63 14.63 0 0 0 -4.2 10.17v.21a14.83 14.83 0 0 0 14.88 14.68h55.71a14.3 14.3 0 0 0 3.67-28.14 23.93 23.93 0 0 0 -23.56-19.92z"/><image height="43" width="85" x="5" xlink:href="data:image/png;base64,iVBORw0KGgoAAAANSUhEUgAAAFYAAAAkCAMAAAAkYj0PAAAABGdBTUEAALGPC/xhBQAAAAFzUkdCAK7OHOkAAAAVUExURSgoKExpcaCgoFBQUG5ublBQUISEhI1fsT0AAAAHdFJOUxsACBsPFRpGXuFgAAABWElEQVRIx7XV25bDIAgF0BMu/v8nF/E+iWlqHNKVN3cpIMXxL4GFM3SQfTazkUyxk63oLYwlVSy2silXkS/wUrZS2a3ZCn1zsdSw7UUYijuHsTa1IvfwWrbSXLkc4N9r27JViwmM1UtWXA3hohQ41m6vl8FQZi7wu2z7KXPW4uRiZS+2AmdXN7DdQEQWQHYHlt6z0dXBBa2xeeVktiZc1jDoF5eGkI4d4MjKc7cNbZ3bqjocLLx5oPDYTaIftcfvAvcs2GFxVsJTOP1wO1jGdUSLaz/DWA1Tl45+Tkqul2ArcPzayGq8JafOUffP3TUp6JQs+Rptc6vtmtBkUw+dv0NzWG0PYf8O7Ym09+ITXyXOPZqEX95aFe3PKxRsL2XV3HR+ZALirPSF0ceHp6F51WBv1A22VaW2GHWzWvat8LOAPf4CrjrA+neNK7+PQBf/DmmLrId09/QDWyESBsibwBUAAAAASUVORK5CYII=" y="14"/></symbol><symbol id="g"><g mask="url(#c)"><use fill="#b2b2b2" height="100" transform="translate(3 18)" width="100" xlink:href="#f"/></g><use height="100" transform="translate(37 51)" width="100" xlink:href="#e"/><use height="100" transform="translate(26 79)" width="100" xlink:href="#d"/><use height="100" transform="translate(52 88)" width="100" xlink:href="#d"/><use height="100" transform="translate(66 79)" width="100" xlink:href="#d"/></symbol><symbol id="h"><path d="m28.43 0a28.44 28.44 0 0 1 3.87 14.32 28.61 28.61 0 0 1 -28.61 28.61 28.71 28.71 0 0 1 -3.69-.27 28.59 28.59 0 1 0 28.43-42.66z" fill="url(#b)"/></symbol><symbol id="i"><g mask="url(#a)"><use height="100" transform="matrix(.71428571 0 0 .71428571 2 5)" width="100" xlink:href="#h"/></g><use height="100" width="100" xlink:href="#g"/></symbol><use height="100" width="100" xlink:href="#i"/></svg>

<svg x="0" y="0" viewBox="0 0 100 100" xmlns="http://www.w3.org/2000/svg" xmlns:xlink="http://www.w3.org/1999/xlink">
  <symbol id="snowflake">
    <path fill="#47c0e3" d="M11.68,4.47H8.85L10.27,2A1.35,1.35,0,1,0,7.93.67L6.51,3.12,5.1.67A1.35,1.35,0,0,0,3.26.18,1.35,1.35,0,0,0,2.76,2L4.18,4.47H1.35a1.35,1.35,0,1,0,0,2.7H4.18L2.76,9.62a1.35,1.35,0,0,0,.49,1.84A1.39,1.39,0,0,0,5.1,11L6.51,8.52,7.93,11a1.35,1.35,0,1,0,2.34-1.35L8.85,7.17h2.83a1.35,1.35,0,1,0,0-2.7Z"></path>
  </symbol>
  <symbol id="lightning">
    <polygon fill="#ffdd15" points="19.6 23.42 12.74 20.39 15.55 5 5 24.49 12.08 27.51 7.49 45 19.6 23.42"></polygon>
  </symbol>
  <symbol id="cloud">
    <path d="M55.7,5A23.94,23.94,0,0,0,34.37,18.05a9.9,9.9,0,0,0-12.78,5.56,15,15,0,0,0-1.71-.1A14.81,14.81,0,0,0,9.2,28,14.63,14.63,0,0,0,5,38.17v.21A14.83,14.83,0,0,0,19.88,53.06H75.59a14.3,14.3,0,0,0,3.67-28.14A23.93,23.93,0,0,0,55.7,5Z"></path>
    <image x="5" y="14" width="85" height="43" xlink:href="data:image/png;base64,iVBORw0KGgoAAAANSUhEUgAAAFYAAAAkCAMAAAAkYj0PAAAABGdBTUEAALGPC/xhBQAAAAFzUkdCAK7OHOkAAAAVUExURSgoKExpcaCgoFBQUG5ublBQUISEhI1fsT0AAAAHdFJOUxsACBsPFRpGXuFgAAABWElEQVRIx7XV25bDIAgF0BMu/v8nF/E+iWlqHNKVN3cpIMXxL4GFM3SQfTazkUyxk63oLYwlVSy2silXkS/wUrZS2a3ZCn1zsdSw7UUYijuHsTa1IvfwWrbSXLkc4N9r27JViwmM1UtWXA3hohQ41m6vl8FQZi7wu2z7KXPW4uRiZS+2AmdXN7DdQEQWQHYHlt6z0dXBBa2xeeVktiZc1jDoF5eGkI4d4MjKc7cNbZ3bqjocLLx5oPDYTaIftcfvAvcs2GFxVsJTOP1wO1jGdUSLaz/DWA1Tl45+Tkqul2ArcPzayGq8JafOUffP3TUp6JQs+Rptc6vtmtBkUw+dv0NzWG0PYf8O7Ym09+ITXyXOPZqEX95aFe3PKxRsL2XV3HR+ZALirPSF0ceHp6F51WBv1A22VaW2GHWzWvat8LOAPf4CrjrA+neNK7+PQBf/DmmLrId09/QDWyESBsibwBUAAAAASUVORK5CYII="></image>
  </symbol>
  <symbol id="s14">
    <g mask="url(#lightning_37_51_1_1_4)">
      <use xlink:href="#cloud" fill="#b2b2b2" x="0" y="0" width="100" height="100" transform="translate(3,18) scale(1,1)"></use>
    </g>
    <use xlink:href="#lightning"  x="0" y="0" width="100" height="100" transform="translate(37,51) scale(1,1)"></use>
    <use xlink:href="#snowflake"  x="0" y="0" width="100" height="100" transform="translate(26,79) scale(1,1)"></use>
    <use xlink:href="#snowflake"  x="0" y="0" width="100" height="100" transform="translate(52,88) scale(1,1)"></use>
    <use xlink:href="#snowflake"  x="0" y="0" width="100" height="100" transform="translate(66,79) scale(1,1)"></use>
  </symbol>
  <symbol id="moon">
    <path d="M28.43,0A28.44,28.44,0,0,1,32.3,14.32,28.61,28.61,0,0,1,3.69,42.93,28.71,28.71,0,0,1,0,42.66,28.59,28.59,0,1,0,28.43,0Z" fill="url(#moon-grad)"></path>
  </symbol>

  <defs>
    <mask id="cloud_3_18_1_1_5">
    <rect x="0" y="0" width="100" height="100" fill="white"></rect>
    <use xlink:href="#cloud" fill="black" stroke="black" stroke-linejoin="round" stroke-width="10" x="0" y="0" width="100" height="100" transform="translate(3,18) scale(1,1)"></use>
  </mask>
    <linearGradient id="moon-grad" x1="0%" y1="50%" x2="100%" y2="0%">
      <stop offset="0%" stop-color="#686e73" />
      <stop offset="100%" stop-color="#6a7075" />
    </linearGradient>
    <mask id="lightning_37_51_1_1_4">
    <rect x="0" y="0" width="100" height="100" fill="white"></rect>
    <use xlink:href="#lightning" fill="black" stroke="black" stroke-linejoin="round" stroke-width="8" x="0" y="0" width="100" height="100" transform="translate(37,51) scale(1,1)"></use>
  </mask>
  </defs>
  <symbol id="s21n">
    <g mask="url(#cloud_3_18_1_1_5)">
      <use xlink:href="#moon"  x="0" y="0" width="100" height="100" transform="translate(2,5) scale(0.714285714,0.714285714)"></use>
    </g>
    <use xlink:href="#s14" x="0" y="0" width="100" height="100"></use>
  </symbol>
  <use xlink:href="#s21n" x="0" y="0" width="100" height="100"></use>
</svg>
